X:68
T:The Boys Of Ballysodare
R:Reel
S:Paddy Canny, Clare (fiddle)
D:Home tape of unknown provenance
Z:Bernie Stocks
N:As played
H:Not just a transposition of the usual 'G' version, but has a remarkable tonality
H:of its own.
H:The initial 'c' , the 'F' in bar 5, and the long 'f' in bar 2 of part 2 are 
H:heavy slides
M:4/4
K:C %i.e. F
cF(3.F.F.F cFdF | cF(3.F.F.F AGGA | cF(3.F.F.F edcA | GFAG  (3FED CF |
AF~F2 F4 | (3.A.A.F cF dFcF | DEFA dcAF | GcAG (3FED FA ||
de^fg ~a3g | ^f3g (3agf de | {a}^fefg abag | ^fded Adde |
de^fg ~a3g | ^f3g (3agf de | a^fge fdcA | GcAG =FDDc ||
Ac(3.c.c.c Ac^fc | Ac^fc AGGc | Ac~c2 dc{d}cA | GcAG FDDc |
Ac~c2 Ac^fc | Ac^fc AGGc | dA(3.A.A.A AGAF | GcAG FDDA ||
<end>
<start>
